X:1
T:Title
%%score { 1 | 2 }
L:1/8
M:3/4
K:G
V:1 treble nm="Grand Piano"
V:2 treble 
V:1
 z2 z2[Q:1/4=100] D2 | DG B2 D2 | DG B2 B2 | [GB][FA] [Ac]2 F2 |[M:5/8] GB B3 |[M:1/4] D2 | %6
[M:3/4] DG B2 D2 | DG B2 B2 | [=Fd][Ec] [Ec]2 B2 |[M:5/8] BA G3 |[M:1/4] B2 | %11
[M:3/4] eB [Ac]2 [FA]2 | [Bd][Ac] B2 B2 | Bd c2 B2 |[M:5/8] [FA][GB] [FA]3 |[M:1/4] D2 | %16
[M:3/4] DG B2 D2 | DG B2 B2 | [=Fd][Ec] [Ec]2 B2 |[M:5/8] BA G3 |] %20
V:2
 z2 z2 [G,B,]2 | [G,B,][G,B,D] [G,DG]2 [G,B,]2 | [G,B,][G,B,D] [G,DG]2 [G,DG]2 | %3
 [D,D][D,D] [D,D]2 [D,A,D]2 |[M:5/8] [G,B,D][K:treble][G,DG] [G,DG]3 |[M:1/4] [G,B,]2 | %6
[M:3/4] [G,B,][G,B,D] [G,DG]2 [G,B,]2 | [G,B,][G,B,D] [G,DG]2 [G,DG]2 | %8
 [B,,G,][C,G,] [C,G,]2 [D,G,D]2 |[M:5/8] [D,G,D][D,F,C] [G,B,]3 |[M:1/4][K:treble] [G,DG]2 | %11
[M:3/4] [G,B,G][G,EG][K:bass] [D,D]2 [D,D]2 | [G,D][G,D] [G,DG]2 [G,DG]2 | %13
 [G,DG][B,DG] [A,DF]2 [G,DG]2 |[M:5/8][K:bass] [D,D][D,D] [D,D]3 |[M:1/4] [D,A,C]2 | %16
[M:3/4] [G,B,][K:treble][G,B,D] [G,DG]2 [G,B,]2 | [G,B,][G,B,D] [G,DG]2 [G,DG]2 | %18
 [B,,G,][C,G,] [C,G,]2 [D,G,D]2 |[M:5/8] [D,G,D][D,F,C] [G,B,]3 |] %20

